X:18
T:Two to the Bar Set                                                            
M:2/4                                                                           
L:1/8                                                                           
C:No. 2                                                                         
K:G                                                                             
ef ge|fd BA|GA BG|AF DF|GA/G/ FG/F/|EF GA|Bd ed| e3 f:|                         
gdBg|af (3e/f/g/ e|dB (3ABc A|BG EF|GA/G/ FG/F/|EF GA|Bd ed|e3 z :|
